X:35
T:Doublestop Studies - G Major
C:Mike Stangeland
M:4/4
L:1/8
Q:1/8=320
K:G
[ad][ad][ad][ad][ad][ad][a2d2]|[FA,][FA,][FA,][FA,][FA,][FA,][F2A,2]|[AD][AD][AD][AD][AD][AD][A2D2]|[dF][dF][dF][dF][dF][dF][d2F2]|
[fA][fA][fA][fA][fA][fA][f2A2]|z8|z2GGA2B2|[gd][gd][gd][gd][gd][gd][g2d2]|
[bg][bg][bg][bg][bg][bg][b2g2]|[ec][ec][ec][ec][ec][ec][e2c2]|[c'g][c'g]
[c'g][c'g][c'g][c'g][c'2g2]|[af][af][af][af][af][af][a2f2]|
[fd][fd][fd][fd][fd][fd][f2d2]|[dB][dB][dB][dB][dB][dB][d2B2]|[BG][BG][BG][BG][BG][BG][B2G2]|[GB,][GB,][GB,][GB,][GB,][GB,][G2B,2]|
[dB][dB][dB][dB][dB][dB][d2B2]|[c'g][c'g][c'g][c'g][c'g][c'g][c'2g2]|[ge][ge][ge][ge][ge][ge][g2e2]|[ad][ad][ad][ad][ad][ad][a2d2]|
[d'f][d'f][d'f][d'f][d'f][d'f][d'2f2]|[d'g][d'g][d'g][d'g][d'g][d'g][d'2g2]|[g'b][g'b][g'b][g'b][g'b][g'b][g'2b2]|[gd][gd][gd][gd][gB][gB][gB][gB]|
[BG][BG][BG][BG][GB,][GB,][GB,][GB,]|[EC][EC][EC][EC][cG][cG][cG][cG]|[ec][ec][ec][ec][ge][ge][ge][ge]|[fd][fd][fd][fd][af][af][af][afA]|
[fA][fA][fA][fA][dF][dF][dF][dF]|[dG][dG][dG][dG][BD][BD][BD][BD]|[GB,][GB,][GB,][GB,][DG,][DG,][DG,][DG,]|[g'b][g'b][g'b][g'b][d'g][d'g][d'g][d'g]|
[gd][gd][gd][gd][gB][gB][gB][gB]|[c'g][c'g][c'g][c'g][c'e][c'e][c'e][c'e]|[ge][ge][ge][ge][gc][gc][gc][gc]|[dF][dF][dF][dF][AD][
